icons/default/HookitoFull.svg

<circle cx="15.5" cy="15.5" r="14.5" fill="black" stroke="black" stroke-width="2" />
<path
	d="M8.05403 23.7285C8.61389 23.6766 9.0764 23.6247 9.46587 23.5728C9.85534 23.5209 10.2691 23.4691 10.6586 23.3653C11.0724 23.2615 11.4132 23.1318 11.6566 22.9762C12.1435 22.7168 12.6303 21.8089 13.1171 20.2785C13.604 18.7221 13.9691 16.5691 14.2125 13.8195C14.3342 12.4447 14.4316 11.3552 14.5047 10.4733C14.602 9.59133 14.6507 8.91689 14.6994 8.42404C14.7481 7.90525 14.7968 7.46427 14.8454 7.10111C14.529 6.5045 14.2369 6.14135 13.9448 5.98571C13.6527 5.83007 13.3849 5.77819 13.0441 5.72631C12.7277 5.67443 12.606 5.67443 12.7033 5.77819C12.8737 5.93383 12.9954 6.27104 13.0928 6.78984C13.1415 7.04924 13.1902 7.33457 13.2145 7.67179C13.2632 7.98307 13.2875 8.5278 13.3119 9.25411C13.3119 9.61726 13.2875 10.1879 13.2389 11.018C13.1902 11.8221 13.1415 12.6781 13.0441 13.586C12.9711 14.468 12.8981 15.324 12.7764 16.18C12.679 17.0101 12.5573 17.6586 12.4599 18.0736C12.2652 18.8518 12.0948 19.4743 11.9 20.0191C11.7053 20.5379 11.4132 21.0826 11.0237 21.6273C10.8047 21.8349 10.4639 22.0424 10.0257 22.198C10.0257 22.198 9.85714 22.2413 9.6624 22.2931C9.46766 22.345 8.85731 22.2758 8.41916 22.1202C8.00534 21.8608 8.00953 21.409 7.88782 20.9421C7.79045 20.4752 7.56521 19.9413 7.46784 19.9413C7.37047 19.9672 7.29744 20.1228 7.22442 20.4341L7.12678 20.807L7 21.7527L7.00001 22.2931L7.12664 22.8335L7.25342 23.1037C7.25342 23.1037 7.59153 23.7544 8.05403 23.7285ZM17.7178 5L19.6651 5.41503C19.8842 5.75225 19.9086 6.06353 19.7625 6.3748C19.6895 6.53044 19.6165 7.49021 19.5191 9.30599C19.4217 11.1218 19.373 13.0672 19.2757 15.1943C19.2026 17.2954 19.154 19.189 19.0809 20.9529C19.0323 22.6909 18.9836 23.5988 18.9592 23.6506C18.9105 23.7544 18.7888 23.8322 18.5941 23.936C18.3994 24.0397 18.2776 24.0138 18.2046 23.8841C18.1316 23.7285 18.0829 23.5728 17.9855 23.4172C17.9125 23.2356 17.8638 23.1318 17.8638 23.08C17.8638 23.054 17.8638 22.1721 17.8882 20.4601C17.9369 18.7221 17.9369 16.8285 17.9855 14.7533C18.0342 12.6781 18.0829 10.7327 18.0829 8.96877C18.1073 7.17893 18.1073 6.21917 18.0586 6.11541C17.9612 5.88195 17.8638 5.51879 17.7178 5ZM7.90798 14.2345C7.93232 14.2345 7.95666 14.3124 8.05403 14.4939C8.1514 14.6496 8.24876 14.8571 8.39482 15.0646C8.54087 15.2721 8.68692 15.4278 8.83298 15.6353C8.97903 15.8169 9.12508 15.9206 9.27113 15.9466C9.41718 15.9984 10.1231 15.9984 11.4862 15.9466C12.8494 15.8947 14.3343 15.8428 15.9408 15.739C17.5474 15.6353 19.0323 15.5315 20.3711 15.4278C21.7342 15.324 22.4645 15.2202 22.5862 15.1684C22.8296 15.0646 22.9513 14.9349 23 14.8052C22.6836 14.442 22.3428 14.2864 22.002 14.3383C21.8072 14.3642 21.15 14.3902 19.9329 14.468C18.7401 14.5199 17.4744 14.5977 16.0869 14.6496C14.7237 14.7014 13.4579 14.7014 12.2895 14.7533C11.1211 14.7793 10.4882 14.7533 10.3909 14.7014C10.2935 14.6496 10.1231 14.5717 9.87968 14.5199C9.6606 14.442 9.44152 14.3902 9.1981 14.3383C8.97903 14.2864 8.71126 14.2086 8.37047 14.1048C8.02969 14.1827 7.85929 14.2345 7.90798 14.2345ZM18.0564 11.5344L19.4217 11.5109L19.3825 12.5326L18.0357 12.5732L18.0564 11.5344ZM17.99 14.5635L19.3062 14.497L19.2648 15.5111L17.9679 15.6035L17.99 14.5635ZM12.9468 14.7533L14.1152 14.7014L13.9456 15.7985L12.825 15.8428L12.9468 14.7533Z"
	fill="white" />
<path d="M52.6705 8.26316H48.9452V13.5482H43.7253V8.26316H40V22.7368H43.7253V16.9474H48.9452V22.7368H52.6705V8.26316Z"
	fill="white" />
<path
	d="M62.4776 8C60.3117 8 58.4924 8.72368 57.0196 10.1711C55.5251 11.6184 54.7887 13.3947 54.7887 15.5C54.7887 17.6272 55.5251 19.4035 57.0196 20.8509C58.4924 22.2982 60.3117 23 62.4776 23C64.6219 23 66.4412 22.2982 67.9574 20.8509C69.4518 19.4035 70.2099 17.6272 70.2099 15.5C70.2099 13.3947 69.4518 11.6184 67.9574 10.1711C66.4412 8.72368 64.6219 8 62.4776 8ZM62.4993 11.4649C63.6256 11.4649 64.5569 11.8377 65.2933 12.5833C66.0297 13.3289 66.3979 14.3158 66.3979 15.5C66.3979 16.7281 66.0297 17.693 65.2933 18.4386C64.5569 19.1842 63.6256 19.5351 62.4993 19.5351C61.3297 19.5351 60.3984 19.1842 59.6836 18.4386C58.9472 17.693 58.6007 16.7281 58.6007 15.5C58.6007 14.3158 58.9472 13.3289 59.6836 12.5833C60.3984 11.8377 61.3297 11.4649 62.4993 11.4649Z"
	fill="white" />
<path
	d="M79.293 8C77.1271 8 75.3077 8.72368 73.8349 10.1711C72.3404 11.6184 71.604 13.3947 71.604 15.5C71.604 17.6272 72.3404 19.4035 73.8349 20.8509C75.3077 22.2982 77.1271 23 79.293 23C81.4372 23 83.2566 22.2982 84.7727 20.8509C86.2672 19.4035 87.0252 17.6272 87.0252 15.5C87.0252 13.3947 86.2672 11.6184 84.7727 10.1711C83.2566 8.72368 81.4372 8 79.293 8ZM79.3146 11.4649C80.4409 11.4649 81.3722 11.8377 82.1086 12.5833C82.845 13.3289 83.2132 14.3158 83.2132 15.5C83.2132 16.7281 82.845 17.693 82.1086 18.4386C81.3722 19.1842 80.4409 19.5351 79.3146 19.5351C78.145 19.5351 77.2137 19.1842 76.499 18.4386C75.7626 17.693 75.416 16.7281 75.416 15.5C75.416 14.3158 75.7626 13.3289 76.499 12.5833C77.2137 11.8377 78.145 11.4649 79.3146 11.4649Z"
	fill="white" />
<path
	d="M102.736 22.7368L97.018 15.1491L101.935 8.26316H97.6028L92.8811 14.8202V8.26316H89.1558V22.7368H92.8811V15.5219L98.3175 22.7368H102.736Z"
	fill="white" />
<path d="M107.941 8.26316H104.216V22.7368H107.941V8.26316Z" fill="white" />
<path d="M121.883 8.26316H109.581V11.6623H113.869V22.7368H117.595V11.6623H121.883V8.26316Z" fill="white" />
<path
	d="M130.268 8C128.102 8 126.282 8.72368 124.81 10.1711C123.315 11.6184 122.579 13.3947 122.579 15.5C122.579 17.6272 123.315 19.4035 124.81 20.8509C126.282 22.2982 128.102 23 130.268 23C132.412 23 134.231 22.2982 135.747 20.8509C137.242 19.4035 138 17.6272 138 15.5C138 13.3947 137.242 11.6184 135.747 10.1711C134.231 8.72368 132.412 8 130.268 8ZM130.289 11.4649C131.416 11.4649 132.347 11.8377 133.083 12.5833C133.82 13.3289 134.188 14.3158 134.188 15.5C134.188 16.7281 133.82 17.693 133.083 18.4386C132.347 19.1842 131.416 19.5351 130.289 19.5351C129.12 19.5351 128.188 19.1842 127.474 18.4386C126.737 17.693 126.391 16.7281 126.391 15.5C126.391 14.3158 126.737 13.3289 127.474 12.5833C128.188 11.8377 129.12 11.4649 130.289 11.4649Z"
	fill="white" />

<circle cx="15.5" cy="15.5" r="14.5" stroke="#000" stroke-width="2"/><path d="M8.054 23.729c.56-.052 1.022-.104 1.412-.156.39-.052.803-.104 1.193-.208.413-.103.754-.233.998-.389.486-.26.973-1.167 1.46-2.697.487-1.557.852-3.71 1.095-6.46.122-1.374.22-2.464.293-3.346.097-.882.146-1.556.194-2.049.05-.519.098-.96.146-1.323-.316-.596-.608-.96-.9-1.115-.292-.156-.56-.208-.9-.26-.317-.052-.439-.052-.342.052.17.156.292.493.39 1.012.049.26.097.545.121.882.05.311.073.856.098 1.582 0 .363-.024.934-.073 1.764-.049.804-.098 1.66-.195 2.568a44.359 44.359 0 0 1-.268 2.594c-.097.83-.219 1.479-.316 1.894-.195.778-.365 1.4-.56 1.945a7.06 7.06 0 0 1-.876 1.608c-.22.208-.56.415-.998.571 0 0-.169.043-.364.095-.194.052-.805-.017-1.243-.173-.414-.26-.41-.711-.531-1.178-.098-.467-.323-1-.42-1-.098.025-.17.18-.244.492l-.097.373-.127.946v.54l.127.54.126.27s.339.651.801.625ZM17.718 5l1.947.415c.22.337.244.649.098.96-.074.155-.147 1.115-.244 2.931s-.146 3.761-.243 5.888c-.073 2.101-.122 3.995-.195 5.759-.049 1.738-.097 2.646-.122 2.698-.049.103-.17.181-.365.285-.195.104-.316.078-.39-.052-.072-.155-.121-.311-.219-.467-.072-.181-.121-.285-.121-.337 0-.026 0-.908.024-2.62.049-1.738.049-3.632.097-5.707.05-2.075.098-4.02.098-5.784.024-1.79.024-2.75-.024-2.854-.098-.233-.195-.596-.341-1.115Zm-9.81 9.235c.024 0 .049.077.146.259.097.156.195.363.34.57.147.208.293.364.439.571.146.182.292.286.438.312.146.051.852.051 2.215 0 1.363-.052 2.848-.104 4.455-.208 1.606-.104 3.091-.208 4.43-.311 1.363-.104 2.094-.208 2.215-.26.244-.103.365-.233.414-.363-.316-.363-.657-.519-.998-.467-.195.026-.852.052-2.07.13-1.192.052-2.458.13-3.845.182-1.363.051-2.63.051-3.797.103-1.169.026-1.802 0-1.9-.052a1.945 1.945 0 0 0-.51-.181 5.288 5.288 0 0 0-.682-.182c-.219-.052-.487-.13-.828-.233-.34.078-.51.13-.462.13Zm10.148-2.7 1.366-.024-.04 1.022-1.346.04.02-1.039Zm-.066 3.028 1.316-.066-.041 1.014-1.297.093.022-1.04Zm-5.043.19 1.168-.052-.17 1.098-1.12.044.122-1.09Z" fill="#fff"/><path d="M52.67 8.263h-3.725v5.285h-5.22V8.263H40v14.474h3.725v-5.79h5.22v5.79h3.725V8.263Z" fill="#fff"/><path d="M62.478 8c-2.166 0-3.986.724-5.458 2.171-1.495 1.447-2.231 3.224-2.231 5.329 0 2.127.736 3.904 2.23 5.35 1.473 1.448 3.293 2.15 5.459 2.15 2.144 0 3.963-.702 5.48-2.15 1.494-1.447 2.252-3.223 2.252-5.35 0-2.105-.758-3.882-2.253-5.329C66.441 8.724 64.622 8 62.477 8Zm.021 3.465c1.127 0 2.058.373 2.794 1.118.737.746 1.105 1.733 1.105 2.917 0 1.228-.368 2.193-1.105 2.939-.736.745-1.667 1.096-2.794 1.096-1.17 0-2.1-.35-2.815-1.096-.737-.746-1.083-1.71-1.083-2.939 0-1.184.346-2.171 1.083-2.917.714-.745 1.646-1.118 2.815-1.118Z" fill="#fff"/><path d="M79.293 8c-2.166 0-3.985.724-5.458 2.171-1.495 1.447-2.231 3.224-2.231 5.329 0 2.127.736 3.904 2.23 5.35 1.474 1.448 3.293 2.15 5.459 2.15 2.144 0 3.964-.702 5.48-2.15 1.494-1.447 2.252-3.223 2.252-5.35 0-2.105-.758-3.882-2.252-5.329C83.257 8.724 81.437 8 79.293 8Zm.022 3.465c1.126 0 2.057.373 2.794 1.118.736.746 1.104 1.733 1.104 2.917 0 1.228-.368 2.193-1.104 2.939-.737.745-1.668 1.096-2.794 1.096-1.17 0-2.101-.35-2.816-1.096-.736-.746-1.083-1.71-1.083-2.939 0-1.184.347-2.171 1.083-2.917.715-.745 1.646-1.118 2.816-1.118Z" fill="#fff"/><path d="m102.736 22.737-5.718-7.588 4.917-6.886h-4.332L92.88 14.82V8.263h-3.725v14.474h3.725v-7.215l5.436 7.215h4.419Z" fill="#fff"/><path d="M107.941 8.263h-3.725v14.474h3.725V8.263Z" fill="#fff"/><path d="M121.883 8.263h-12.302v3.4h4.288v11.074h3.726V11.662h4.288V8.263Z" fill="#fff"/><path d="M130.268 8c-2.166 0-3.986.724-5.458 2.171-1.495 1.447-2.231 3.224-2.231 5.329 0 2.127.736 3.904 2.231 5.35 1.472 1.448 3.292 2.15 5.458 2.15 2.144 0 3.963-.702 5.479-2.15 1.495-1.447 2.253-3.223 2.253-5.35 0-2.105-.758-3.882-2.253-5.329C134.231 8.724 132.412 8 130.268 8Zm.021 3.465c1.127 0 2.058.373 2.794 1.118.737.746 1.105 1.733 1.105 2.917 0 1.228-.368 2.193-1.105 2.939-.736.745-1.667 1.096-2.794 1.096-1.169 0-2.101-.35-2.815-1.096-.737-.746-1.083-1.71-1.083-2.939 0-1.184.346-2.171 1.083-2.917.714-.745 1.646-1.118 2.815-1.118Z" fill="#fff"/>
